src/images/app-icons/light-theme/109.svg

<svg xmlns="http://www.w3.org/2000/svg" viewBox="0 0 32 32"><defs><linearGradient id="109_svg__a" x1="18.999" y1="29.001" x2="30.5" y2="17.5" gradientUnits="userSpaceOnUse"><stop offset=".1" stop-opacity="0"/><stop offset=".4"/></linearGradient><linearGradient id="109_svg__c" y1="32" x2="32" gradientUnits="userSpaceOnUse"><stop offset=".1" stop-color="#42be65"/><stop offset=".9" stop-color="#007d79"/></linearGradient><mask id="109_svg__b" x="0" y="0" width="32" height="32" maskUnits="userSpaceOnUse"><path d="M28 18L18 28 4 14V4h10l6 6 1.414-1.414-6-6A1.994 1.994 0 0014 2H3.994A2 2 0 002 4v10a1.99 1.99 0 00.585 1.41l14 14a2 2 0 002.831 0l10-10" fill="#f2f2f2"/><path d="M10 14a4 4 0 114-4 4 4 0 01-4 4zm0-6a2 2 0 102 2.005A2 2 0 0010 8z" fill="#fff"/><path fill="url(#109_svg__a)" d="M29 16L17.999 28.001 21 30l11-11-3-3z"/></mask></defs><g data-name="Layer 2"><g data-name="Light theme icons"><g mask="url(#109_svg__b)"><path fill="url(#109_svg__c)" d="M0 0h32v32H0z"/></g><path d="M30 12h-3v-2h-2v2h-1a2 2 0 00-2 2v2a2 2 0 002 2h4v2h-6v2h3v2h2v-2h1a2 2 0 002-2v-2a2 2 0 00-2-2h-4v-2h6z" fill="#001d6c"/></g></g></svg>

<svg xmlns="http://www.w3.org/2000/svg" xmlns:xlink="http://www.w3.org/1999/xlink" viewBox="0 0 32 32"><defs><style>.cls-1{fill:#f2f2f2;}.cls-2{fill:#fff;}.cls-3{fill:url(#linear-gradient);}.cls-4{mask:url(#mask);}.cls-5{fill:url(#linear-gradient-2);}.cls-6{fill:#001d6c;}</style><linearGradient id="linear-gradient" x1="18.999" y1="29.001" x2="30.5" y2="17.5" gradientUnits="userSpaceOnUse"><stop offset="0.1" stop-opacity="0"/><stop offset="0.4"/></linearGradient><mask id="mask" x="0" y="0" width="32" height="32" maskUnits="userSpaceOnUse"><path class="cls-1" d="M28,18,18,28,4,14l0-10H14l6,6,1.414-1.414-6-6A1.994,1.994,0,0,0,14,2H3.994A2,2,0,0,0,2,4V14a1.99,1.99,0,0,0,.585,1.41l14,14a2,2,0,0,0,2.831,0l10-10h0"/><path class="cls-2" d="M10,14a4,4,0,1,1,4-4A4,4,0,0,1,10,14Zm0-6a2,2,0,1,0,2,2.005A2,2,0,0,0,10,8Z"/><polygon class="cls-3" points="29 16 17.999 28.001 21 30 32 19 29 16"/></mask><linearGradient id="linear-gradient-2" y1="32" x2="32" gradientUnits="userSpaceOnUse"><stop offset="0.1" stop-color="#42be65"/><stop offset="0.9" stop-color="#007d79"/></linearGradient></defs><g id="Layer_2" data-name="Layer 2"><g id="Light_theme_icons" data-name="Light theme icons"><g class="cls-4"><rect id="Color" class="cls-5" width="32" height="32"/></g><path class="cls-6" d="M30,12H27V10H25v2H24a2,2,0,0,0-2,2V16a2,2,0,0,0,2,2l4,0,0,2H22v2h3v2h2V22h1a2,2,0,0,0,2-2V18a2,2,0,0,0-2-2l-4,0,0-2h6Z"/></g></g></svg>
